T: Return Of Spring, The
M: 4/4
L: 1/8
K: Gmaj
M: 2/4
d>e dB | G2 GD | GB/d/ ed | c2 cB | cd cA | F2 F2 | dB/4^c/4d/ ed | B2 Bc |
d>e dB | G2 GD | GB/d/ ed | c2 cB | Af f/e/f | Ae e/d/e | dB cA | G2 Gd ||
g>g ge | f>f fd | ed Bc | d2 dB | GB/4^c/4d/ ed | A2 A2 | dB/4^c/4d/ ed | B2 Bd |
g>g ge | f>f fd | ed Bc | d2 dB | GB/4^c/4d/ ed | A>A Ag | fd ef | g2 ge ||
|: dd g>f | ee a>g | fd ef | ed Bc | dd g>f | ee a>g | fd ef | g2 ge :|
